X:439
T:Tor Reid Hornpipe
T:Toe Reid
C:James S C Johnstone, Orkney
D:Parlophone E4070 (78rpm)
Z:Nigel Gatherer
M:4/4
L:1/8
K:Bb
dc | B2 F2 DB,DF | EDEG FBAc | B2 F2 DB,DF | GBAc  B2   :|
Bc | defd  BcdB  | efge cdec | defd  BcdB  | GBAc  B2 Bc |
     defd  BcdB  | efge cdec | dBcA  BGFE  | DB,CA, B,2 |]
<end>
<start>
